static/icons/js.svg

<svg width="48" height="48" viewBox="0 0 48 48" fill="none" xmlns="http://www.w3.org/2000/svg">
<path d="M48 0H0V48H48V0Z" fill="#F7DF1E"/>
<path d="M32.244 37.5003C33.2109 39.079 34.4688 40.2394 36.6935 40.2394C38.5625 40.2394 39.7564 39.3053 39.7564 38.0146C39.7564 36.4679 38.5297 35.9201 36.4726 35.0203L35.345 34.5365C32.0901 33.1498 29.9278 31.4127 29.9278 27.7403C29.9278 24.3575 32.5053 21.7822 36.5335 21.7822C39.4013 21.7822 41.4631 22.7803 42.9488 25.3937L39.4364 27.6489C38.6631 26.2622 37.8288 25.7159 36.5335 25.7159C35.2124 25.7159 34.3751 26.554 34.3751 27.6489C34.3751 29.002 35.2132 29.5498 37.1484 30.3879L38.276 30.871C42.1084 32.5144 44.2722 34.1898 44.2722 37.9567C44.2722 42.0177 41.0821 44.2424 36.7979 44.2424C32.609 44.2424 29.9027 42.2462 28.5785 39.6298L32.244 37.5003ZM16.3103 37.8912C17.0189 39.1483 17.6634 40.2112 19.2131 40.2112C20.6951 40.2112 21.6299 39.6314 21.6299 37.3769V22.0397H26.1404V37.4378C26.1404 42.1083 23.4021 44.234 19.4051 44.234C15.7937 44.234 13.7023 42.3651 12.6387 40.114L16.3103 37.8912Z" fill="black"/>
</svg>

<svg width="48" height="48" fill="none" xmlns="http://www.w3.org/2000/svg"><path d="M48 0H0v48h48V0Z" fill="#F7DF1E"/><path d="M32.244 37.5c.967 1.579 2.225 2.74 4.45 2.74 1.868 0 3.062-.935 3.062-2.225 0-1.547-1.226-2.095-3.283-2.995l-1.128-.484c-3.255-1.386-5.417-3.123-5.417-6.796 0-3.382 2.577-5.958 6.605-5.958 2.868 0 4.93.998 6.416 3.612l-3.513 2.255c-.773-1.387-1.607-1.933-2.903-1.933-1.32 0-2.158.838-2.158 1.933 0 1.353.838 1.9 2.773 2.739l1.128.483c3.832 1.643 5.996 3.319 5.996 7.086 0 4.06-3.19 6.285-7.474 6.285-4.189 0-6.895-1.996-8.22-4.612l3.666-2.13Zm-15.934.391c.709 1.257 1.353 2.32 2.903 2.32 1.482 0 2.417-.58 2.417-2.834V22.04h4.51v15.398c0 4.67-2.738 6.796-6.735 6.796-3.611 0-5.703-1.869-6.766-4.12l3.671-2.223Z" fill="#000"/></svg>
